svgs/duotone/grate-droplet.svg

<svg xmlns="http://www.w3.org/2000/svg" viewBox="0 0 576 512"><!--! Font Awesome Pro 6.6.0 by @fontawesome - https://fontawesome.com License - https://fontawesome.com/license (Commercial License) Copyright 2024 Fonticons, Inc. --><defs><style>.fa-secondary{opacity:.4}</style></defs><path class="fa-secondary" d="M0 96L0 256 0 416c0 35.3 28.7 64 64 64l64 0 96 0 96 0 24.2 0c-15.3-22.9-24.2-50.4-24.2-80c0-23.6 5.8-46.9 16.9-67.8l75.3-141.2c7.6-14.3 20.6-24.5 35.8-28.8L448 96c0-35.3-28.7-64-64-64l-64 0-96 0-96 0L64 32C28.7 32 0 60.7 0 96zm64 0l32 0 0 128-32 0L64 96zm0 192l32 0 0 128-32 0 0-128zM160 96l32 0 0 128-32 0 0-128zm0 192l32 0 0 128-32 0 0-128zM256 96l32 0 0 128-32 0 0-128zm0 192l32 0 0 128-32 0 0-128zM352 96l32 0 0 128-32 0 0-128z"/><path class="fa-primary" d="M365.2 347.3l75.3-141.2c4.6-8.7 13.7-14.1 23.5-14.1s18.9 5.4 23.5 14.1l75.3 141.2c8.7 16.2 13.2 34.3 13.2 52.7c0 61.9-50.1 112-112 112s-112-50.1-112-112c0-18.4 4.5-36.5 13.2-52.7z"/></svg>

<svg xmlns="http://www.w3.org/2000/svg" viewBox="0 0 576 512"><!--! Font Awesome Pro 6.4.0 by @fontawesome - https://fontawesome.com License - https://fontawesome.com/license (Commercial License) Copyright 2023 Fonticons, Inc. --><defs><style>.fa-secondary{opacity:.4}</style></defs><path class="fa-primary" d="M365.2 347.3l75.3-141.2c4.6-8.7 13.7-14.1 23.5-14.1s18.9 5.4 23.5 14.1l75.3 141.2c8.7 16.2 13.2 34.3 13.2 52.7c0 61.9-50.1 112-112 112s-112-50.1-112-112c0-18.4 4.5-36.5 13.2-52.7z"/><path class="fa-secondary" d="M64 32C28.7 32 0 60.7 0 96V256 416c0 35.3 28.7 64 64 64h64 96 96 24.2c-15.3-22.9-24.2-50.4-24.2-80c0-23.6 5.8-46.9 16.9-67.8l75.3-141.2c7.6-14.3 20.6-24.5 35.8-28.8V96c0-35.3-28.7-64-64-64H320 224 128 64zm0 64H96V224H64V96zm0 192H96V416H64V288zm96 128V288h32V416H160zm96 0V288h32V416H256zM384 224H352V96h32V224zM288 96V224H256V96h32zm-96 0V224H160V96h32z"/></svg>
